img/icons/comments-likes-icon.svg

<svg width="22" height="22" viewBox="0 0 22 22" fill="none" xmlns="http://www.w3.org/2000/svg">
<circle cx="10.7925" cy="10.7925" r="10.7925" fill="#E8190C"/>
<g clip-path="url(#clip0_3025_660)">
<path d="M10.7904 15.6979C10.7408 15.6979 10.6912 15.6845 10.6467 15.6578C10.5984 15.6288 9.45114 14.9356 8.28739 13.8911C7.59765 13.2721 7.04707 12.6581 6.65098 12.0663C6.13841 11.3004 5.88066 10.5637 5.88482 9.87671C5.88968 9.07727 6.16484 8.32545 6.65966 7.75972C7.16283 7.18446 7.83433 6.86768 8.5505 6.86768C9.46833 6.86768 10.3075 7.4027 10.7904 8.25023C11.2734 7.40272 12.1125 6.86768 13.0304 6.86768C13.707 6.86768 14.3525 7.15351 14.8481 7.67254C15.392 8.24212 15.7011 9.0469 15.696 9.8805C15.6918 10.5663 15.4293 11.3019 14.9156 12.0667C14.5182 12.6582 13.9684 13.2719 13.2814 13.8908C12.1219 14.9352 10.9829 15.6283 10.9349 15.6573C10.8903 15.6843 10.8403 15.6979 10.7904 15.6979Z" fill="white"/>
</g>
<defs>
<clipPath id="clip0_3025_660">
<rect width="10.7925" height="10.7925" fill="white" transform="translate(4.9043 5.88672)"/>
</clipPath>
</defs>
</svg>

<svg width="22" height="22" fill="none" xmlns="http://www.w3.org/2000/svg"><circle cx="10.793" cy="10.793" r="10.793" fill="#E8190C"/><g clip-path="url(#clip0_3025_660)"><path d="M10.79 15.698c-.05 0-.099-.014-.143-.04a17.18 17.18 0 01-2.36-1.767c-.69-.619-1.24-1.233-1.636-1.825-.513-.766-.77-1.502-.766-2.19.005-.799.28-1.55.775-2.116.503-.576 1.174-.892 1.89-.892.918 0 1.757.535 2.24 1.382.483-.847 1.323-1.382 2.24-1.382.677 0 1.322.286 1.818.805.544.57.853 1.374.848 2.207-.004.686-.267 1.422-.78 2.187-.398.591-.948 1.205-1.635 1.824a17.234 17.234 0 01-2.346 1.766.279.279 0 01-.145.04z" fill="#fff"/></g><defs><clipPath id="clip0_3025_660"><path fill="#fff" transform="translate(4.904 5.887)" d="M0 0h10.793v10.793H0z"/></clipPath></defs></svg>
